X:6
T:Nibb's Pound. ThoH.006
Q:1/2=100
M:C
L:1/8
B:Thompson's Compleat Collection of 120 Favourite Hornpipes.
Z:Village Music Project, Simon Wilson 2016
O:England.
K:Bb
edc|B2B,2-B,2(CD)|(EFGA) (BFED)|C2c2-c(egf)|(edcB){B}A2F2|
(Bdfe) (dcBA)|(GFED)E2g2|(fdcB) Ace2|1(dB)(cA) B:|2(dB)(cA)B2B,2||
|:f2(fg) (fe)(dc)|(B_AGF) (ED)E2|g2(ga) (gf=ed)|(cBAG) (FE)F2|
F(A/B/) cA F(B/c/) dB|F(c/d/) ec A2g2|(fdcB) (Ac)e2|1(dB)(cA)B2B,2:|2(dB)(cA) B|]2

